X:22
T:Effects Of Love. Le4.022, The
B:L.Leadley MS#4 c1850
Z:Village Music Project, 2016 Steve Mansfield
M:C|
L:1/8
Q:2/4=75
N:* e2 in Mss
N:** G2 in Mss
K:Gmix
Bc d3"^"B c2 | (BA)A2 (GF)G2 | A2A2 (AB) (cd) | e2 (dc "*"e4) :|
e2 (e2 ef) ge | d2g2 B2GB | d3B c2(BA) | A2(GF) "**"G4 :|

